X:1
T:Jackey and the cow
T:Jackey and the cow
T:Dibdin
C:Dibdin
L:1/8
M:6/8
K:D
V:1 treble 
V:1
 A/A/ | d2 d dcB | BAG F2 A | ddd dcd | ce z z2 e | eee fff | ggg !fermata!a2 A/A/ | AAA AAA | %8
 BB z z2 B | dc z e3 | agf edc | d>d z z2 || %12

